assets/svg/card_icon.svg

<svg fill="none" height="14" viewBox="0 0 18 14" width="18" xmlns="http://www.w3.org/2000/svg"><path clip-rule="evenodd" d="m.183594 2.5924v8.8165c0 .5014.199061.9819.553653 1.3358.353863.3546.834373.5536 1.335733.5536h13.85462c.5014 0 .9819-.199 1.3358-.5536.3546-.3539.5535-.8344.5535-1.3358v-8.8165c0-.50125-.1989-.98176-.5535-1.33573-.3539-.354478-.8344-.553545-1.3358-.553545h-13.85462c-.50136 0-.98187.199061-1.335733.553545-.354587.35395-.553653.83448-.553653 1.33573zm16.373906 1.88939v6.92721c0 .167-.0662.3275-.1845.4453-.1178.1183-.2784.1845-.4453.1845h-13.85469c-.16698 0-.3275-.0662-.44531-.1845-.11833-.1178-.18448-.2783-.18448-.4453v-6.92721zm-13.22511 5.66771h2.51907c.3476 0 .62979-.28205.62979-.62976 0-.3476-.28219-.62968-.62979-.62968h-2.51907c-.3476 0-.62978.28208-.62978.62968 0 .34771.28218.62976.62978.62976zm13.22511-6.92744h-15.11444v-.62979c0-.16687.06615-.32739.18448-.4452.11781-.11833.27835-.18448.44531-.18448h13.85465c.1669 0 .3275.06615.4453.18448.1184.11781.1845.27835.1845.4452z" fill="#000" fill-rule="evenodd"/></svg>

<svg width="18" height="14" viewBox="0 0 18 14" fill="none" xmlns="http://www.w3.org/2000/svg">
<path fill-rule="evenodd" clip-rule="evenodd" d="M0.183594 2.5924V11.4089C0.183594 11.9103 0.382655 12.3908 0.737247 12.7447C1.09111 13.0993 1.57162 13.2983 2.07298 13.2983H15.9276C16.429 13.2983 16.9095 13.0993 17.2634 12.7447C17.618 12.3908 17.8169 11.9103 17.8169 11.4089V2.5924C17.8169 2.09115 17.618 1.61064 17.2634 1.25667C16.9095 0.902192 16.429 0.703125 15.9276 0.703125H2.07298C1.57162 0.703125 1.09111 0.902186 0.737247 1.25667C0.38266 1.61062 0.183594 2.09115 0.183594 2.5924ZM16.5575 4.48179V11.409C16.5575 11.576 16.4913 11.7365 16.373 11.8543C16.2552 11.9726 16.0946 12.0388 15.9277 12.0388H2.07301C1.90603 12.0388 1.74551 11.9726 1.6277 11.8543C1.50937 11.7365 1.44322 11.576 1.44322 11.409V4.48179H16.5575ZM3.33239 10.1495H5.85146C6.19906 10.1495 6.48125 9.86745 6.48125 9.51974C6.48125 9.17214 6.19906 8.89006 5.85146 8.89006H3.33239C2.98479 8.89006 2.70261 9.17214 2.70261 9.51974C2.70261 9.86745 2.98479 10.1495 3.33239 10.1495ZM16.5575 3.22206H1.44306V2.59227C1.44306 2.4254 1.50921 2.26488 1.62754 2.14707C1.74535 2.02874 1.90589 1.96259 2.07285 1.96259H15.9275C16.0944 1.96259 16.255 2.02874 16.3728 2.14707C16.4912 2.26488 16.5573 2.42542 16.5573 2.59227L16.5575 3.22206Z" fill="black"/>
</svg>
